X:1
T: The Rough Diamond
C:
R:Jig
Q:180
K:G
M:6/8
L:1/16
|:G2B2A2 G4B2|d2e2f2 g2e2B2|A2B2A2 G4B2|A2B2A2 A2F2D2|
G2B2A2 G4B2|d2e2f2 g2e2B2|e2c2A2 d2B2G2|F2D2F2 G6:|
|:d6 d2c2B2|d2e2f2 g2d2B2|d6 d2c2A2|A2B2A2 A2F2D2|
d6 d2c2B2|d2e2f2 g2d2B2|e2c2A2 d2B2G2|F2D2F2 G6:|
